X: 195
T: The Concert
R: reel
M: 4/4
L: 1/8
K: Ador
|:BAGB AE~E2|GABG ~A3B|dBAB G3B|d2(3gfe dBAc|
BAGB AE~E2|GABG ABcd|ea~a2 gedB|1GBdB BAAG:|2GBdB BAA2||
|:ea~a2 ea~a2|edef gedB|degb a2ga|bgab ged2|
ea~a2 ea~a2|edef gedB|G3e d2ge|1dBGA BAA2:|2dBGA BAdB|]
F: https://thesession.org/tunes/1474#setting14868

